X:1
T: Dinnet House
C:
R:Jig
Q:180
K:D
M:6/8
L:1/16
F2|A4B2 A2F2D2|E2F2D2 C2B,2A,2|A4B2 A2F2D2|A2B2c2 d2c2B2|A4B2 A2F2D2|E2F2D2 C2B,2A,2|B,2C2D2 C2B,2A,2|D6 D4F2|
A4B2 A2F2D2|E2F2D2 C2B,2A,2|A4B2 A2F2D2|A2B2c2 d2c2B2|A4B2 A2F2D2|E2F2D2 C2B,2A,2|B,2C2D2 C2B,2A,2|D6 D4A2|
d2f2a2 a2f2d2|e2f2d2 c2B2A2|d2f2a2 a2f2d2|a2b2c'2 d'2c'2b2|d'2c'2b2 a2g2f2|e2f2d2 c2B2A2|B2c2d2 c2B2A2|d6 d4A2|
d2f2a2 a2f2d2|e2f2d2 c2B2A2|d2f2a2 a2f2d2|a2b2c'2 d'2c'2b2|d'2c'2b2 a2g2f2|e2f2d2 c2B2A2|B2c2d2 c2B2A2|d6 d4||
